SharedPackages/Infrastructure/DesignResourcesKitIcons/Sources/DesignResourcesKitIcons/DesignSystemImages.xcassets/Color/24px/Autofill-Color-24.imageset/Autofill-Color-24.svg

<svg width="24" height="24" viewBox="0 0 24 24" fill="none" xmlns="http://www.w3.org/2000/svg">
<path d="M12.0265 8.75H5.75C4.09315 8.75 2.75 10.0931 2.75 11.75V17.25C2.75 18.9069 4.09315 20.25 5.75 20.25H18.25C19.9069 20.25 21.25 18.9069 21.25 17.25V11.75C21.25 11.2662 21.1355 10.8092 20.9321 10.4045C20.6234 10.4615 20.3064 10.4942 19.9939 10.5264C19.8492 10.5413 19.7055 10.5561 19.5641 10.5732C19.4717 11.3204 19.364 12.105 19.2794 12.4408C19.0742 13.2555 18.4564 14.0102 17.49 13.9781C16.603 13.9486 15.9916 13.2568 15.7424 12.5149C15.5809 12.0338 15.5266 11.5078 15.4737 10.9939C15.4588 10.8492 15.444 10.7055 15.4269 10.5641C14.6798 10.4717 13.8951 10.364 13.5594 10.2794C12.806 10.0897 12.1425 9.54458 12.0265 8.75Z" fill="#E6F6FF"/>
<path d="M12.0187 8.68887C11.9813 8.34518 11.7323 8 11.3866 8H5.75C3.67893 8 2 9.67893 2 11.75V17.25C2 19.3211 3.67893 21 5.75 21H18.25C20.3211 21 22 19.3211 22 17.25V11.75C22 11.4585 21.9667 11.1748 21.9038 10.9024C21.8106 10.499 21.3604 10.3238 20.9535 10.4005C20.581 10.4708 20.3701 10.9043 20.4498 11.275C20.4827 11.4281 20.5 11.587 20.5 11.75V17.25C20.5 18.4926 19.4926 19.5 18.25 19.5H5.75C4.50736 19.5 3.5 18.4926 3.5 17.25V11.75C3.5 10.5074 4.50736 9.5 5.75 9.5H11.4562C11.8209 9.5 12.0582 9.05141 12.0187 8.68887Z" fill="#045EB2"/>
<path d="M6 14.5C6 13.6716 6.67157 13 7.5 13H12.5C13.3284 13 14 13.6716 14 14.5C14 15.3284 13.3284 16 12.5 16H7.5C6.67157 16 6 15.3284 6 14.5Z" fill="#75B6EB"/>
<path fill-rule="evenodd" clip-rule="evenodd" d="M18.6652 7.33456C18.5567 6.39946 18.4049 5.18253 18.3095 4.80352C18.0427 3.74437 16.9569 3.74437 16.6902 4.80352C16.5947 5.18253 16.4429 6.39946 16.3344 7.33456C15.3993 7.44305 14.1824 7.59481 13.8034 7.69028C12.7433 7.95731 12.7433 9.04256 13.8034 9.3096C14.1817 9.40488 15.3946 9.55623 16.329 9.66468C16.4378 10.6364 16.5931 11.9073 16.6902 12.1964C17.0257 13.1955 18.0358 13.2829 18.3095 12.1964C18.4048 11.8181 18.5561 10.6051 18.6646 9.67075C19.6362 9.56195 20.9072 9.40667 21.1962 9.3096C22.1954 8.97403 22.2828 7.96398 21.1962 7.69028C20.8172 7.59481 19.6003 7.44305 18.6652 7.33456Z" fill="#7D4794"/>
<path d="M14 3.5C14 4.32843 13.3284 5 12.5 5C11.6716 5 11 4.32843 11 3.5C11 2.67157 11.6716 2 12.5 2C13.3284 2 14 2.67157 14 3.5Z" fill="#FAB341"/>
<path d="M10 5C10 5.55228 9.55228 6 9 6C8.44772 6 8 5.55228 8 5C8 4.44772 8.44772 4 9 4C9.55228 4 10 4.44772 10 5Z" fill="#FFDACC"/>
</svg>

<svg fill="none" viewBox="0 0 24 24" xmlns="http://www.w3.org/2000/svg">
  <path fill="#E6EDFF" d="M12.027 8.75H5.75a3 3 0 0 0-3 3v5.5a3 3 0 0 0 3 3h12.5a3 3 0 0 0 3-3v-5.5c0-.484-.114-.94-.318-1.345a11.9 11.9 0 0 1-.938.121c-.145.015-.288.03-.43.047-.092.747-.2 1.532-.285 1.868-.205.814-.823 1.57-1.789 1.537-.887-.03-1.498-.721-1.748-1.463-.161-.481-.215-1.007-.268-1.521-.015-.145-.03-.288-.047-.43-.747-.092-1.532-.2-1.868-.285-.753-.19-1.416-.734-1.532-1.529Z"/>
  <path fill="#2B55CA" d="M12.019 8.689C11.98 8.345 11.732 8 11.387 8H5.75A3.75 3.75 0 0 0 2 11.75v5.5A3.75 3.75 0 0 0 5.75 21h12.5A3.75 3.75 0 0 0 22 17.25v-5.5c0-.291-.033-.575-.096-.848-.093-.403-.544-.578-.95-.502-.373.07-.584.504-.504.875.033.153.05.312.05.475v5.5a2.25 2.25 0 0 1-2.25 2.25H5.75a2.25 2.25 0 0 1-2.25-2.25v-5.5A2.25 2.25 0 0 1 5.75 9.5h5.706c.365 0 .602-.449.563-.811Z"/>
  <path fill="#8FABF9" d="M6 14.5A1.5 1.5 0 0 1 7.5 13h5a1.5 1.5 0 0 1 0 3h-5A1.5 1.5 0 0 1 6 14.5Z"/>
  <path fill="#6B4EBA" fill-rule="evenodd" d="M18.665 7.335c-.108-.936-.26-2.152-.355-2.531-.267-1.06-1.353-1.06-1.62 0-.095.379-.247 1.595-.356 2.53-.935.11-2.152.26-2.53.356-1.06.267-1.06 1.353 0 1.62.378.095 1.59.246 2.525.355.109.971.264 2.242.361 2.531.336 1 1.346 1.087 1.62 0 .095-.378.246-1.59.355-2.525.971-.109 2.242-.264 2.531-.361 1-.336 1.087-1.346 0-1.62-.379-.095-1.596-.247-2.53-.355Z" clip-rule="evenodd"/>
  <path fill="#FC3" d="M14 3.5a1.5 1.5 0 1 1-3 0 1.5 1.5 0 0 1 3 0Z"/>
  <path fill="#FFD7CC" d="M10 5a1 1 0 1 1-2 0 1 1 0 0 1 2 0Z"/>
</svg>
